X:446
T:Irish Ground,The. (p).1701.PLFD.446
M:9/4
L:1/4
Q:3/4=100
S:Playford, Dancing Master,11th Ed.,1701.
O:England
Z:Chris Partington.
K:F bass
"^Bass Ground line requires Bass Clef in place of Treble"f3f3c3|f3f3e3|\
"^Played twice to every cu. when they begin"f3f3B3|c3c3f3:|
K:F treble
|:"^Melody"c|A>Bc(d<c)fe2c|A>Bc(d<c)fg2c|A>Bc(d<c)fd2a|bagg2ff2:|
|:e|dcBAGFGAB|AGFDEFG2B|ABccd_ed=ef|edcf>gef2:|
